icons/2_Variations/Remote Utilities bg.var.svg

<svg width="1024" height="1024" viewBox="0 0 1024 1024" fill="none" xmlns="http://www.w3.org/2000/svg">
<g clip-path="url(#clip0_3_239)">
<path d="M512 1024C794.77 1024 1024 794.77 1024 512C1024 229.23 794.77 0 512 0C229.23 0 0 229.23 0 512C0 794.77 229.23 1024 512 1024Z" fill="#9ABEFF"/>
<path d="M694.259 434.13L511.999 321.91V244L694.299 356.22L694.259 434.13ZM511.999 546.3L392.949 473L511.949 399.72V321.83L329.699 434.08V512L511.999 624.21L694.299 512V434.1L511.999 546.3ZM511.999 702.09L392.999 628.81L441.289 599.09L378.019 560.09L329.699 589.84V667.78L511.999 780L694.299 667.78V589.87L511.999 702.09Z" fill="white"/>
</g>
<defs>
<clipPath id="clip0_3_239">
<rect width="1024" height="1024" fill="white"/>
</clipPath>
</defs>
</svg>

<svg width="1024" height="1024" fill="none" xmlns="http://www.w3.org/2000/svg"><g clip-path="url(#a)"><path d="M512 1024c282.77 0 512-229.23 512-512S794.77 0 512 0 0 229.23 0 512s229.23 512 512 512Z" fill="#9ABEFF"/><path d="m694.259 434.13-182.26-112.22V244l182.3 112.22-.04 77.91ZM511.999 546.3 392.949 473l119-73.28v-77.89l-182.25 112.25V512l182.3 112.21L694.299 512v-77.9l-182.3 112.2Zm0 155.79-119-73.28 48.29-29.72-63.27-39-48.32 29.75v77.94L511.999 780l182.3-112.22v-77.91l-182.3 112.22Z" fill="#fff"/></g><defs><clipPath id="a"><path fill="#fff" d="M0 0h1024v1024H0z"/></clipPath></defs></svg>
